!!!COM: Anonymous
!!!OTL: Le mois de may fort me contraint
!!!AGN: Song; Chanson; Rondeau
!!!SCT: Ano3112
!!!SCA: Ano3112
!!!SMS: Dijon Chansonnier
!!!folio: 26v-27r
!!!SMS2: F176
!!!voices: 3
**kern	**kern	**kern
*staff3	*staff2	*staff1
*Ivox	*Ivox	*Ivox
*I"Contra	*I"Tenor	*I"Discantus
*I'C	*I'T	*I'D
*clefF4	*clefGv2	*clefG2
*k[b-]	*k[b-]	*k[b-]
*M2/1	*M2/1	*M2/1
*met(C|)	*met(C|)	*met(C|)
=1-	=1-	=1-
0G	0G	[0g
=2	=2	=2
0E-i	1.B-	0g]
.	4A	.
.	4G	.
=3	=3	=3
1.D	[0F	[0a
4C	.	.
4BB-	.	.
=4	=4	=4
0AA	0F]	0a]
=5	=5	=5
1GG	0G	1.b-
1E-i	.	.
.	.	4a
.	.	4g
=6	=6	=6
1D	1.d	1f
1G	.	1b-
.	2B-	.
=7	=7	=7
1F	1c	2a
.	.	2g
1G	1B-	[1g
=8	=8	=8
0D	0A	1g]
.	.	1f#i
=9	=9	=9
1.E-i	[0G	0g
[2C	.	.
=10	=10	=10
2C]	0G]	1r
2BB-	.	.
2.E-i	.	1g
4F	.	.
=11	=11	=11
1G	1r	1.dd
1r	1G	.
.	.	4cc
.	.	4b-
=12	=12	=12
1D	1.d	0a
[1F	.	.
.	4c	.
.	4B-	.
=13	=13	=13
2F]	1.A	1.cc
2D	.	.
1F	.	.
.	2B-	4b-
.	.	4a
=14	=14	=14
0C	1.c	1.g
.	4B-	2a
.	4A	.
=15	=15	=15
1r	0G	1.b-
1G	.	.
.	.	4a
.	.	4b-
=16	=16	=16
0F	1A	1cc
.	1c	[1a
=17	=17	=17
0G	0B-	2a]
.	.	4g
.	.	4f
.	.	1g
=18	=18	=18
1D	0A	1a
[1D	.	[1f
=19	=19	=19
2D]	0F	2f]
2C	.	2d
2BB-	.	[1d
2AA	.	.
=20	=20	=20
1GG	[0G	1d]
[1C	.	[1e
=21	=21	=21
2C]	1G]	2e]
2GG	.	2d
1D	1F	[1d
=22	=22	=22
0AA	0E	1d]
.	.	1c#i
=23	=23	=23
1D	1r	0d
2.F	1D	.
4G	.	.
=24	=24	=24
0A	1.F	1r
.	.	1d
.	2G	.
=25	=25	=25
[0D	0A	1.f
.	.	2g
=26	=26	=26
0D]	1.F	1.a
.	4G	2f
.	4A	.
=27	=27	=27
1r	1.B-	1f
[1G	.	[1b-
.	[2d	.
=28	=28	=28
2G]	2d]	2b-]
2A	4c	4a
.	4B-	4g
1F	1c	1a
=29	=29	=29
2G	1B-	2r
2.E	.	1b-
.	2G	.
4F	.	.
[2D	[2F	[2a
=30	=30	=30
2D]	2F]	2a]
2.E	2G	2.g
.	2B-	.
4D	.	4f
2E	2c	2e
=31	=31	=31
[0DN	1.d	[0fN
.	4c	.
.	4B-	.
=32	=32	=32
0D]	0AN	0f]
=33	=33	=33
1GG	1.G	0r
1C	.	.
.	4F	.
.	4E	.
=34	=34	=34
1D	1F	1r
2.E	1G	[1g
4F	.	.
=35	=35	=35
2G	2B-	2g]
2C	2c	2e
1D	1A	1f#i
=36	=36	=36
1GG	1G	1g
2G	1r	2b-
2E	.	2g
=37	=37	=37
1D	2r	1a
.	2F	.
2E	2G	2g
2G	2B-	[2g
=38	=38	=38
1D	1A	2g]
.	.	2f#i
2.E	[1G	[1g
4C	.	.
=39	=39	=39
2E	1G]	2g]
2G	.	2b-
[1D	1d	2a
.	.	[2f
=40	=40	=40
2D]	1c	2f]
2E	.	2g
2C	2c	2e
2D	2A	[2f
=41	=41	=41
1BB-	1B-	2f]
.	.	2d
2C	2G	2e
[2F	[2A	2c
=42	=42	=42
4F]	4A]	2r
4E	4F	.
2G	2B-	2d
2r	2A	2c
2D	2F	[2f
=43	=43	=43
1C	1G	2f]
.	.	2e
1D	1F	1f
=44	=44	=44
1BB-	1.B-	1f
1r	.	1b-
.	2c	.
=45	=45	=45
1GG	0d	1b-
2.D	.	[1a
4C	.	.
=46	=46	=46
1AA	1c	1a]
1GG	[1B-	[1dd
=47	=47	=47
1G	1B-]	1dd]
[1F	[1A	1r
=48	=48	=48
1F]	1A]	1cc
1G	[1d	1b-
=49	=49	=49
1D	1d]	0a
1F	1c	.
=50	=50	=50
1G	1B-	1.g
[1D	[1A	.
.	.	4f#i
.	.	4e
=51	=51	=51
1D]	1A]	1f#i
1GGl	1Gl	1gl
==	==	==
*-	*-	*-
!!!RDF**kern: l=long note in original notation
!!!RDF**kern: i=editorial accidental
!!!RDF**kern: N=signum congruentiae
!!!ENC: Chris Gage 08-12-2016
!!!END: 2018/09/28/
!!!EED: Jesse Rodin
!!!EEV: 2018/11/29/
!!!ONB: Translated from MusicXML and edited on 2018/11/29/ by Craig Sapp
!!muse2ps: C^@{COM}\n@{SMS}, @{folio}; also @{SMS2}^v95,95,150c160
